X: 12074
T: Esther's
R: reel
M: 4/4
K: Dmajor
ED|CDEF GABc|d~D3 ADFD|EFGA BAGF|EBAF GEED|
EFGA BABc|d~D3 ADFD|EFGA BAGF|EBAF GEE2||
|:~g3e fed2|efga gfef|e~B3 dBAF|GBAF [1 GEE2:|2 GFED||

